X: 17
T:Helston Wassail
M:3/4
L:1/4
K:F
F/4\
|FFA/2 B/4|ccc|dd=B|czc \
|ddd|cAc|BAG|Fzc||
|:BAG \
|FF/2z/2F|GG/2z/2G|Afd|c2c \
|d2d|cAc|BB/2AAG|F2F/2G/4 \
|AFA/2B/4|ccc/2c/2|ddd|czc/2c/2 \
|ddd|cAc|BAG|Fzc:|

